X: 20893
T: the FLOWER OF THE WEST
C: Copyright.--J. Henderson.
Q: "Slow and with feeling."
%R: air, jig, waltz
B: W. Hamilton "Universal Tune-Book" Vol. 2 Glasgow 1846 p.89 #3
S: http://s3-eu-west-1.amazonaws.com/itma.dl.printmaterial/book_pdfs/hamiltonvol2web.pdf
Z: 2016 John Chambers <jc:trillian.mit.edu>
M: 6/8
L: 1/16
K: C
%%slurgraces yes
%%graceslurs yes
% - - - - - - - - - - - - - - - - - - - - - - - - -
EF |\
G3AG2 c3de2 | G2{B}A2G2 GE3E2 |\
F2E2D2 B3AG2 | G2^FGAG E4(EF) |\
G3AG2 c3de2 | A3Bc2 GE3E2 |\
(FG)(AB)(cd e3)fd2 | c3Bed c4 |]
(cd) |\
e3dc2 B2c2d2 | d2c2A2 ^F2G2G2 |\
G2{A}G2{A}G2 G2c2d2 | e2d2c2 Hd4G2 |\
G2G2G2 _A2G2G2 | (GA)(Bc)(de Hg)Hf3 ed |\
c3dc2 B2A2d2 | G2e2d2 c4 |]
% - - - - - - - - - - - - - - - - - - - - - - - - -
